assets/img/braze_icons/building-02.svg

<svg fill="none" height="24" viewBox="0 0 24 24" width="24" xmlns="http://www.w3.org/2000/svg"><g fill="#801ed7"><path d="m6.16146 2h11.67704c.5272-.00002.982-.00003 1.3565.03057.3954.0323.7886.10362 1.167.29641.5645.28762 1.0234.74657 1.311 1.31105.1928.37838.2641.7716.2964 1.16695.0306.37456.0306.82932.0306 1.35646v.83856c0 .9263-.9969 2-2.6667 2-1.6697 0-2.6666-1.0737-2.6666-2 0-.55228-.4477-1-1-1s-1 .44772-1 1c0 .9263-.997 2-2.6667 2s-2.66667-1.0737-2.66667-2c0-.55228-.44771-1-1-1-.55228 0-1 .44772-1 1 0 .9263-.99692 2-2.66666 2-1.66975 0-2.66667-1.0737-2.66667-2v-.83858c-.00002-.52711-.00003-.98189.03057-1.35644.0323-.39535.10362-.78857.29641-1.16695.28762-.56448.74657-1.02343 1.31105-1.31105.37838-.19279.7716-.26411 1.16695-.29641.37455-.0306.82936-.03059 1.35648-.03057z"/><path clip-rule="evenodd" d="m19.3333 11c.9504 0 1.8858-.2571 2.6667-.7179v7.5565c0 .5271 0 .9819-.0306 1.3564-.0323.3954-.1036.7886-.2964 1.167-.2876.5645-.7465 1.0234-1.311 1.311-.3784.1928-.7716.2641-1.167.2964-.3745.0306-.8293.0306-1.3564.0306h-11.67716c-.52714 0-.9819 0-1.35646-.0306-.39535-.0323-.78857-.1036-1.16695-.2964-.56448-.2876-1.02343-.7465-1.31105-1.311-.19279-.3784-.26411-.7716-.29641-1.167-.0306-.3745-.03059-.8293-.03057-1.3564v-7.5565c.78088.4608 1.71628.7179 2.66667.7179 1.4054 0 2.77803-.5621 3.66666-1.514.88864.9519 2.26127 1.514 3.66667 1.514s2.778-.5621 3.6667-1.514c.8886.9519 2.2612 1.514 3.6666 1.514zm-8.7333 3h2.8c.5601 0 .8401 0 1.054.109.1882.0959.3411.2488.437.437.109.2139.109.4939.109 1.054v4.4h-6v-4.4c0-.5601 0-.8401.10899-1.054.09588-.1882.24886-.3411.43702-.437.21391-.109.49389-.109 1.05399-.109z" fill-rule="evenodd"/></g></svg>

<svg width="24" height="24" viewBox="0 0 24 24" fill="none" xmlns="http://www.w3.org/2000/svg">
<path d="M6.16146 2H17.8385C18.3657 1.99998 18.8205 1.99997 19.195 2.03057C19.5904 2.06287 19.9836 2.13419 20.362 2.32698C20.9265 2.6146 21.3854 3.07355 21.673 3.63803C21.8658 4.01641 21.9371 4.40963 21.9694 4.80498C22 5.17954 22 5.6343 22 6.16144L22 7C22 7.9263 21.0031 9 19.3333 9C17.6636 9 16.6667 7.9263 16.6667 7C16.6667 6.44772 16.219 6 15.6667 6C15.1144 6 14.6667 6.44772 14.6667 7C14.6667 7.9263 13.6697 9 12 9C10.3303 9 9.33333 7.9263 9.33333 7C9.33333 6.44772 8.88562 6 8.33333 6C7.78105 6 7.33333 6.44772 7.33333 7C7.33333 7.9263 6.33641 9 4.66667 9C2.99692 9 2 7.9263 2 7V6.16142C1.99998 5.63431 1.99997 5.17953 2.03057 4.80498C2.06287 4.40963 2.13419 4.01641 2.32698 3.63803C2.6146 3.07355 3.07355 2.6146 3.63803 2.32698C4.01641 2.13419 4.40963 2.06287 4.80498 2.03057C5.17953 1.99997 5.63434 1.99998 6.16146 2Z" fill="#801ED7"/>
<path fill-rule="evenodd" clip-rule="evenodd" d="M19.3333 11C20.2837 11 21.2191 10.7429 22 10.2821V17.8386C22 18.3657 22 18.8205 21.9694 19.195C21.9371 19.5904 21.8658 19.9836 21.673 20.362C21.3854 20.9265 20.9265 21.3854 20.362 21.673C19.9836 21.8658 19.5904 21.9371 19.195 21.9694C18.8205 22 18.3657 22 17.8386 22H6.16144C5.6343 22 5.17954 22 4.80498 21.9694C4.40963 21.9371 4.01641 21.8658 3.63803 21.673C3.07355 21.3854 2.6146 20.9265 2.32698 20.362C2.13419 19.9836 2.06287 19.5904 2.03057 19.195C1.99997 18.8205 1.99998 18.3657 2 17.8386V10.2821C2.78088 10.7429 3.71628 11 4.66667 11C6.07207 11 7.4447 10.4379 8.33333 9.486C9.22197 10.4379 10.5946 11 12 11C13.4054 11 14.778 10.4379 15.6667 9.486C16.5553 10.4379 17.9279 11 19.3333 11ZM10.6 14H13.4C13.9601 14 14.2401 14 14.454 14.109C14.6422 14.2049 14.7951 14.3578 14.891 14.546C15 14.7599 15 15.0399 15 15.6V20H9V15.6C9 15.0399 9 14.7599 9.10899 14.546C9.20487 14.3578 9.35785 14.2049 9.54601 14.109C9.75992 14 10.0399 14 10.6 14Z" fill="#801ED7"/>
</svg>
